X:2
T:Walliser L\"andler  FC 7-
%%MIDI program 21
R:Laendler
M:3/4
L:1/8
K:F %%MIDI gchordon
"F"FA ACF2 | "C7"EG GCB2 | CG GCE2 | "F"FA ACc2 | FA ACF2 | "C7"EG GCB2 | 
EG GC DE |1 "F"F4z2 :|2 "F"F4G2 |: [K:C] "C"Ge eG c2 | "G7"Gd dGf2 | Gd dGB2 | 
"C"ce eGg2 | Ge eGc2 | "G7"Gd dG f2 | Gd dG AB |1 "C"c4G2 :|2 "C"c4FG || [K:F] 
|: "F"AC AC FA | "C7"GC GC GA | BC BC GB | "F"AC AC FG | AC AC FA | "C7"GC GC GA | 
BC BC EG |1 "F"F2z2FG :|2 "F"F2z2 cd |: [K:C] "C"eG eG ce | "G7"dG dG de | fG fG df | 
"C"eG eG cd | eG eG ce | "G7"dG dG de | fd BG AB |1 "C"c2z2cd :|2 "C"c2z2z2 |] 
% LD00774

